symbols/web/cookie/materialsymbolsoutlined/cookie_wght100gradN25fill1_24px.svg

<svg xmlns="http://www.w3.org/2000/svg" height="24" width="24"><path d="M10.5 9.725q.525 0 .887-.362.363-.363.363-.863 0-.525-.363-.888-.362-.362-.887-.362-.5 0-.863.362-.362.363-.362.888 0 .5.362.863.363.362.863.362Zm-2 5q.525 0 .887-.362.363-.363.363-.863 0-.525-.363-.887-.362-.363-.887-.363-.5 0-.862.363-.363.362-.363.887 0 .5.363.863.362.362.862.362Zm6.5 1q.325 0 .538-.213.212-.212.212-.512 0-.325-.212-.538-.213-.212-.538-.212-.3 0-.512.212-.213.213-.213.538 0 .3.213.512.212.213.512.213Zm-3 5.5q-1.925 0-3.6-.725t-2.925-1.975Q4.225 17.275 3.5 15.6q-.725-1.675-.725-3.6 0-2.175.9-3.988.9-1.812 2.375-3.062Q7.525 3.7 9.413 3.125q1.887-.575 3.887-.3 0 1.125.325 2t.963 1.5q.637.625 1.55.975.912.35 2.087.45-.1 1.35.813 2.488.912 1.137 2.187 1.362 0 2-.737 3.737-.738 1.738-1.988 3.05-1.25 1.313-2.925 2.075-1.675.763-3.575.763Z"/></svg>

<svg xmlns="http://www.w3.org/2000/svg" height="24" width="24"><path d="M10.5 9.725Q11.025 9.725 11.387 9.363Q11.75 9 11.75 8.5Q11.75 7.975 11.387 7.612Q11.025 7.25 10.5 7.25Q10 7.25 9.637 7.612Q9.275 7.975 9.275 8.5Q9.275 9 9.637 9.363Q10 9.725 10.5 9.725ZM8.5 14.725Q9.025 14.725 9.387 14.363Q9.75 14 9.75 13.5Q9.75 12.975 9.387 12.613Q9.025 12.25 8.5 12.25Q8 12.25 7.638 12.613Q7.275 12.975 7.275 13.5Q7.275 14 7.638 14.363Q8 14.725 8.5 14.725ZM15 15.725Q15.325 15.725 15.538 15.512Q15.75 15.3 15.75 15Q15.75 14.675 15.538 14.462Q15.325 14.25 15 14.25Q14.7 14.25 14.488 14.462Q14.275 14.675 14.275 15Q14.275 15.3 14.488 15.512Q14.7 15.725 15 15.725ZM12 21.225Q10.075 21.225 8.4 20.5Q6.725 19.775 5.475 18.525Q4.225 17.275 3.5 15.6Q2.775 13.925 2.775 12Q2.775 9.825 3.675 8.012Q4.575 6.2 6.05 4.95Q7.525 3.7 9.413 3.125Q11.3 2.55 13.3 2.825Q13.3 3.95 13.625 4.825Q13.95 5.7 14.588 6.325Q15.225 6.95 16.138 7.3Q17.05 7.65 18.225 7.75Q18.125 9.1 19.038 10.238Q19.95 11.375 21.225 11.6Q21.225 13.6 20.488 15.337Q19.75 17.075 18.5 18.387Q17.25 19.7 15.575 20.462Q13.9 21.225 12 21.225Z"/></svg>
